app/assets/images/heroicons/mini/h1.svg

<svg width="20" height="20" viewBox="0 0 20 20" fill="none" xmlns="http://www.w3.org/2000/svg">
<path fill-rule="evenodd" clip-rule="evenodd" d="M2.75 4C3.16421 4 3.5 4.33579 3.5 4.75V9.25H8.5V4.75C8.5 4.33579 8.83579 4 9.25 4C9.66421 4 10 4.33579 10 4.75V15.25C10 15.6642 9.66421 16 9.25 16C8.83579 16 8.5 15.6642 8.5 15.25V10.75H3.5V15.25C3.5 15.6642 3.16421 16 2.75 16C2.33579 16 2 15.6642 2 15.25V4.75C2 4.33579 2.33579 4 2.75 4ZM13 8.75C13 8.33579 13.3358 8 13.75 8H15.5C15.9142 8 16.25 8.33579 16.25 8.75V14.5H17.25C17.6642 14.5 18 14.8358 18 15.25C18 15.6642 17.6642 16 17.25 16H13.75C13.3358 16 13 15.6642 13 15.25C13 14.8358 13.3358 14.5 13.75 14.5H14.75V9.5H13.75C13.3358 9.5 13 9.16421 13 8.75Z" fill="black"/>
</svg>

<svg xmlns="http://www.w3.org/2000/svg" viewBox="0 0 20 20" fill="currentColor" aria-hidden="true" data-slot="icon">
  <path fill-rule="evenodd" d="M2.75 4a.75.75 0 0 1 .75.75v4.5h5v-4.5a.75.75 0 0 1 1.5 0v10.5a.75.75 0 0 1-1.5 0v-4.5h-5v4.5a.75.75 0 0 1-1.5 0V4.75A.75.75 0 0 1 2.75 4ZM13 8.75a.75.75 0 0 1 .75-.75h1.75a.75.75 0 0 1 .75.75v5.75h1a.75.75 0 0 1 0 1.5h-3.5a.75.75 0 0 1 0-1.5h1v-5h-1a.75.75 0 0 1-.75-.75Z" clip-rule="evenodd"/>
</svg>
